X: 36918
T: Shooting Star, The
R: reel
M: 4/4
K: Dmajor
|:F2 FE FDDE|FGEF D2 DE|FBBA BAFB|ABdf edBA|
F2 FE FDDE|FAEF D2 DE|FBBA BAFB|1 AFEF D2 DE:|2 AFEF D2 DE||
FD (3EFG A dfa|bafe dBBA|Beed efed|Beed e3 A|
FADF Adfa|bafe dBBA|BdAd FDEF|DB,A,B, D3 A|
F2 DF Adfa|bafe dBBA|Beed efed|Beed e3 A|
FADF Adfa|bafe dBBA|BdAd FDEF|DB,A,B, D3 z||

